**kern	**kern	**dynam
*part1	*part1	*part1
*staff2	*staff1	*
*I"Piano	*	*
*clefG2	*clefG2	*
*k[f#c#g#d#]	*k[f#c#g#d#]	*
=1	=1	=1
2r;	2r;	.
*clefF4	*	*
=	=	=
*tremolo	*	*
!	!LO:TX:b:i:t=crescendo	!
64BBBLLLL	[2a [2cc# [2ee [2ff#	f
64BB	.	.
64BBB	.	.
64BB	.	.
64BBB	.	.
64BB	.	.
64BBB	.	.
64BB	.	.
64BBB	.	.
64BB	.	.
64BBB	.	.
64BB	.	.
64BBB	.	.
64BB	.	.
64BBB	.	.
64BB	.	.
64BBB	.	.
64BB	.	.
64BBB	.	.
64BB	.	.
64BBB	.	.
64BB	.	.
64BBB	.	.
64BB	.	.
64BBB	.	.
64BB	.	.
64BBB	.	.
64BB	.	.
64BBB	.	.
64BB	.	.
64BBB	.	.
64BBJJJJ	.	.
=	=	=
64BBBLLLL	2a] 2cc#] 2ee] 2ff#]	.
64BB	.	.
64BBB	.	.
64BB	.	.
64BBB	.	.
64BB	.	.
64BBB	.	.
64BB	.	.
64BBB	.	.
64BB	.	.
64BBB	.	.
64BB	.	.
64BBB	.	.
64BB	.	.
64BBB	.	.
64BB	.	.
64BBB	.	.
64BB	.	.
64BBB	.	.
64BB	.	.
64BBB	.	.
64BB	.	.
64BBB	.	.
64BB	.	.
64BBB	.	.
64BB	.	.
64BBB	.	.
64BB	.	.
64BBB	.	.
64BB	.	.
64BBB	.	.
64BBJJJJ	.	.
*Xtremolo	*	*
=	=	=
8BBB	8b 8dd# 8ff# 8aa 8bb	ff
8r	8r	.
4r	4r	.
=	=	=
2r;	2r;	.
=	=	=
8EEE 8EE	8e 8g# 8b 8ee	ff
8r	8r	.
4r	4r	.
=	=	=
8E 8G# 8B 8e	8g# 8b 8ee 8gg#	.
8r	8r	.
4r	4r	.
=	=	=
8EEE 8EE	8E	.
8r	8r	.
4r	4r	.
==	==	==
*-	*-	*-
!!!system-decoration: {(s1,s2)}
